X:1
T:Title
%%score ( 1 2 ) ( 3 4 )
L:1/8
Q:1/4=95
M:4/4
K:G
V:1 treble nm="Grand Piano, Soprano"
V:2 treble 
V:3 bass nm="Choir Pad, Thou Thinkest, Lord, of Me"
V:4 bass 
V:1
 [B,D]2 [B,D][DB] [DB]2 GA | [CG][CF] [DF]2 [CD]2 [CD][Dc] | [Dc]2 [CA][DB] [CA][B,G] [B,G]2 | %3
w: By~Edmund~Simon~Lorenz * * * * *|||
 [Gd]2 [Gd][GB] [GB]2 [FA][=FB] | [EA][EG] [EG]2 [EA]2 [DB][B,D] | [DB]2 [CA]2 [B,G]4 | %6
w: |||
 [Gd]2 [Gd][GB] [Gd]2 [Ge]2 | [FA]4 [Fc]2 [Ac][FA] | [Ac]2 [Fd]2 [GB]4 | %9
w: |||
 [Gd]2 [Gd][GB] [GB]2 [FA][=FB] | [EA][EG] [EG]2 [EA]2 [DB][B,D] | [DB]2 [CA]2 [B,G]4- | %12
w: |||
 [B,G]4 z4 |] %13
w: |
V:2
 z4 z2 B,2 | x8 | x8 | x8 | x8 | x8 | x8 | x8 | x8 | x8 | x8 | x8 | x8 |] %13
V:3
 G,2 G,G, G,2 G,2 | [D,A,][D,A,] [D,A,]2 [D,F,]2 [D,F,][D,A,] | [D,A,]2 [D,F,]2 G,G, G,2 | %3
 [G,B,]2 [G,B,][G,D] [G,D]2 CB, | [C,C][C,C] [C,C]2 [C,G,]2 [D,G,][D,G,] | %5
 [D,F,]2 [D,F,]2 [G,,G,]4 | [G,B,]2 [G,B,][G,D] [G,B,]2 [C,C]2 | %7
 [D,C][D,C] [D,C]2 [D,A,]2 [D,A,][D,D] | [D,D]2 [D,D]2 [G,D][G,D] [G,D]2 | %9
 [G,B,]2 [G,B,][G,D] [G,D]2 CB, | [C,C][C,C] [C,C]2 [C,G,]2 [D,G,][D,G,] | %11
 [D,F,]2 [D,F,]2 [G,,G,]4- | [G,,G,]4 z4 |] %13
V:4
 x8 | x8 | x8 | z4 z2 G,2 | x8 | x8 | x8 | x8 | x8 | z4 z2 G,2 | x8 | x8 | x8 |] %13

